packages/foundations/assets/icons/functional/images/notification/exclamation_mark_circle_filled.svg

<svg xmlns="http://www.w3.org/2000/svg" width="32" height="32" fill="none"><path fill="#1A1C1F" fill-rule="evenodd" d="M14.72 2.06c-1.337.16-2.192.345-3.214.694a14.01 14.01 0 0 0-9.108 9.958 13.97 13.97 0 0 0 2.111 11.263c1.513 2.162 3.665 3.918 6.004 4.898 1.813.759 3.549 1.111 5.487 1.111 2.014 0 3.907-.403 5.746-1.224 3.133-1.398 5.81-4.13 7.127-7.273.76-1.814 1.111-3.55 1.11-5.487-.001-2.779-.782-5.401-2.282-7.665a14.06 14.06 0 0 0-9.621-6.178c-.537-.084-2.898-.153-3.36-.097m1.641 6.023q.356.149.537.477c.08.145.09.589.103 4.638.011 3.145-.002 4.563-.044 4.765-.184.884-1.336 1.068-1.82.289l-.124-.199V13.44c0-2.537.018-4.677.04-4.756.097-.344.557-.68.935-.683.097 0 .264.036.373.082m.299 12.762c.739.395.902 1.372.337 2.014-.377.429-.833.572-1.346.423-.597-.174-1.018-.762-.973-1.358.076-1.007 1.088-1.558 1.982-1.079"/></svg>

<svg width="32" height="32" viewBox="0 0 32 32" fill="none" xmlns="http://www.w3.org/2000/svg"><path d="M14.720 2.060 C 13.383 2.220,12.528 2.405,11.506 2.754 C 6.954 4.310,3.537 8.045,2.398 12.712 C 1.455 16.573,2.232 20.722,4.509 23.975 C 6.022 26.137,8.174 27.893,10.513 28.873 C 12.326 29.632,14.062 29.984,16.000 29.984 C 18.014 29.984,19.907 29.581,21.746 28.760 C 24.879 27.362,27.556 24.630,28.873 21.487 C 29.633 19.673,29.984 17.937,29.983 16.000 C 29.982 13.221,29.201 10.599,27.701 8.335 C 25.479 4.983,22.049 2.781,18.080 2.157 C 17.543 2.073,15.182 2.004,14.720 2.060 M16.361 8.083 C 16.597 8.181,16.778 8.342,16.898 8.560 C 16.978 8.705,16.988 9.149,17.001 13.198 C 17.012 16.343,16.999 17.761,16.957 17.963 C 16.773 18.847,15.621 19.031,15.137 18.252 L 15.013 18.053 15.013 13.440 C 15.013 10.903,15.031 8.763,15.053 8.684 C 15.150 8.340,15.610 8.004,15.988 8.001 C 16.085 8.001,16.252 8.037,16.361 8.083 M16.660 20.845 C 17.399 21.240,17.562 22.217,16.997 22.859 C 16.620 23.288,16.164 23.431,15.651 23.282 C 15.054 23.108,14.633 22.520,14.678 21.924 C 14.754 20.917,15.766 20.366,16.660 20.845 " fill="#1A1C1F" stroke="none" fill-rule="evenodd"></path></svg>
